X: 29976
T: Obsessive Island
R: jig
M: 6/8
K: Dmajor
DED B,DA,|DFA BAF|ABd BAB|AFD EDC|
DED B,DA,|DFA BAF|ABd fga|BAF D3:|
faa fef|edB BAF|Add ede|fef gfg|
eaa fef|edB BAF|Add BAB|AFE D3:|

